Origami/64x64/apps/electrum.svg

<svg width="64" height="64" version="1.1" viewBox="0 0 64 64" xmlns="http://www.w3.org/2000/svg">
 <circle cx="32" cy="33" r="28" style="opacity:.2"/>
 <circle cx="32" cy="32" r="28" style="fill:#cccccc"/>
 <ellipse cx="32" cy="32" rx="25" ry="15" style="fill:none;stroke-width:2.0619652;stroke:#1488c4"/>
 <ellipse transform="rotate(60)" cx="43.713" cy="-11.713" rx="25" ry="15" style="fill:none;stroke-width:2.0619652;stroke:#1488c4"/>
 <ellipse transform="matrix(-.5 .8660254 .8660254 .5 0 0)" cx="11.713" cy="43.713" rx="25" ry="15" style="fill:none;stroke-width:2.0619652;stroke:#1488c4"/>
 <path d="M 32 4 A 28 28 0 0 0 4 32 A 28 28 0 0 0 4.0175781 32.492188 A 28 28 0 0 1 32 5 A 28 28 0 0 1 59.974609 32.492188 A 28 28 0 0 0 60 32 A 28 28 0 0 0 32 4 z" style="fill:#ffffff;opacity:.2"/>
 <path d="m28 20v4c-0.491694 0.02-1.396178 0-1.867186 0h-2.132814v2s0.718836-0.03 0.691406 0c0.920258-0.014 1.213314 0.652134 1.308594 1.097656v9.902344c-0.03528 0.281552-0.0052 0.98-0.648436 1 0.0297 0.026-1.351564 0-1.351564 0v2h2.253906c0.550204-0.02 1.214576 0 1.746094 0v4l2-0.03516v-3.96484h1.96875l0.0625 4h2l-0.0625-4c3.815624-0.276952 6.03125-0.732744 6.03125-5 0-3-2.001822-3.99809-4.367594-4 1.500636-0.11364 2.366512-1 2.367188-3.5-0.540048-3.046169-1.285912-3.5-3.999594-3.5v-4h-2v4c-0.597248-1e-5 -1.39366-0.022-2 0v-4zm2 6c2.82037 0 4.000276 3e-5 4 2 2.76e-4 2.000132-1.461254 2-4 2zm0 6c4 1.5e-4 6.000416 4.6e-5 6 3 4.16e-4 3.000198-2 3-6 3z" style="fill:#1488c4"/>
</svg>

<svg xmlns="http://www.w3.org/2000/svg" width="64" height="64" version="1.1" viewBox="0 0 64 64">
 <circle style="opacity:0.2" cx="32" cy="33" r="28"/>
 <circle style="fill:#cccccc" cx="32" cy="32" r="28"/>
 <ellipse style="fill:none;stroke:#1488c4;stroke-width:2.06196523" cx="32" cy="32" rx="25" ry="15"/>
 <ellipse style="fill:none;stroke:#1488c4;stroke-width:2.06196523" cx="43.713" cy="-11.713" rx="25" ry="15" transform="rotate(60)"/>
 <ellipse style="fill:none;stroke:#1488c4;stroke-width:2.06196523" cx="11.713" cy="43.713" rx="25" ry="15" transform="matrix(-0.5,0.8660254,0.8660254,0.5,0,0)"/>
 <path style="opacity:0.2;fill:#ffffff" d="M 32 4 A 28 28 0 0 0 4 32 A 28 28 0 0 0 4.0175781 32.492188 A 28 28 0 0 1 32 5 A 28 28 0 0 1 59.974609 32.492188 A 28 28 0 0 0 60 32 A 28 28 0 0 0 32 4 z"/>
 <path style="fill:#1488c4" d="m 28,20 v 4 c -0.491694,0.02 -1.396178,0 -1.867186,0 H 24 v 2 c 0,0 0.718836,-0.03 0.691406,0 C 25.611664,25.986 25.90472,26.652134 26,27.097656 V 37 c -0.03528,0.281552 -0.0052,0.98 -0.648436,1 C 25.381264,38.026 24,38 24,38 v 2 h 2.253906 C 26.80411,39.98 27.468482,40 28,40 v 4 l 2,-0.03516 V 40 h 1.96875 l 0.0625,4 h 2 l -0.0625,-4 C 37.784374,39.723048 40,39.267256 40,35 40,32 37.998178,31.00191 35.632406,31 37.133042,30.88636 37.998918,30 37.999594,27.5 37.459546,24.453831 36.713682,24 34,24 v -4 h -2 v 4 c -0.597248,-10e-6 -1.39366,-0.022 -2,0 v -4 z m 2,6 c 2.82037,0 4.000276,3e-5 4,2 2.76e-4,2.000132 -1.461254,2 -4,2 z m 0,6 c 4,1.5e-4 6.000416,4.6e-5 6,3 4.16e-4,3.000198 -2,3 -6,3 z"/>
</svg>
